Costumes/T-story-3.svg

<?xml version="1.0" encoding="utf-8"?>
<!-- Generator: Adobe Illustrator 18.0.0, SVG Export Plug-In . SVG Version: 6.00 Build 0)  -->
<!DOCTYPE svg PUBLIC "-//W3C//DTD SVG 1.1//EN" "http://www.w3.org/Graphics/SVG/1.1/DTD/svg11.dtd">
<svg version="1.1" id="Layer_2" xmlns="http://www.w3.org/2000/svg" xmlns:xlink="http://www.w3.org/1999/xlink" x="0px" y="0px"
	 viewBox="0 0 41.9 49.8" enable-background="new 0 0 41.9 49.8" xml:space="preserve">
<g>
	<path fill="#41A2F2" d="M40.8,12.6c-0.8,0.1-1.2-0.2-1.6-0.9c-0.5-1-1.1-2-1.8-2.9c-1-1.4-2.4-2.2-4.1-2.5
		c-3.1-0.6-6.2-0.3-9.3,0.2c0.1,4.5,0.2,8.9,0.1,13.3c0,6,0.7,11.9,0.3,17.9c-0.2,2.7,0.1,5.4,0.1,8.1c0,0.6,0.3,0.9,0.9,0.9
		c0.6,0,1.3,0,1.9,0c0.6,0,0.9,0.3,0.8,0.9c0,0,0,0.1,0,0.1c-0.1,2.1-0.1,2.1-2.1,2.2c-2,0.1-4-0.1-6.1-0.1c-1.8,0-3.6,0-5.5-0.1
		c-1.2,0-1.2,0-1.2-1.1c0-1.8,0-1.8,1.8-2.1c0.1,0,0.1,0,0.2,0c1.9,0,1.9-0.3,2.1-2.1c0.2-2.3,0.2-4.7,0.2-7
		c0-6.6,0.2-13.2,0.2-19.7c0-3-0.2-5.9-0.2-8.9c0-0.7,0-1.4,0-2.1c-1.6,0-3.2-0.1-4.7,0c-1.5,0.1-3,0.4-4.5,0.6
		c-2,0.3-3.3,1.7-4.5,3.1c-0.6,0.7-1,1.6-1.4,2.5c-0.2,0.4-0.4,0.7-0.9,0.6c-0.6-0.1-1.4,0-1.4-0.9c0-0.8,0.2-1.6,0.4-2.3
		c0.5-1.9,1.1-3.7,1.6-5.6c0.3-1.1,0.4-2.2,0.6-3.3c0.2-1.1,0.7-1.3,1.7-0.9C4.6,0.5,5,0.8,5.3,1.1c0.5,0.5,1.1,0.7,1.8,0.7
		C9,1.9,10.7,2.2,12.5,2C17.8,1.5,23,1.9,28.3,1.8c1.6,0,3.3,0.1,4.9,0.2c1.5,0.1,2.8-0.5,3.9-1.4c0.2-0.2,0.5-0.3,0.7-0.4
		C38.8-0.2,39.4,0,39.6,1c0.8,3.5,1.5,6.9,2.2,10.4C42,12.4,41.8,12.5,40.8,12.6z"/>
</g>
</svg>

<?xml version="1.0" encoding="UTF-8" standalone="no"?>
<!-- Generator: Adobe Illustrator 18.0.0, SVG Export Plug-In . SVG Version: 6.00 Build 0)  -->

<svg
   version="1.1"
   id="Layer_2"
   x="0px"
   y="0px"
   viewBox="0 0 41.769694 49.921151"
   enable-background="new 0 0 41.9 49.8"
   xml:space="preserve"
   sodipodi:docname="T-story-3.svg"
   width="41.769695"
   height="49.92115"
   xmlns:inkscape="http://www.inkscape.org/namespaces/inkscape"
   xmlns:sodipodi="http://sodipodi.sourceforge.net/DTD/sodipodi-0.dtd"
   xmlns="http://www.w3.org/2000/svg"
   xmlns:svg="http://www.w3.org/2000/svg"><defs
   id="defs9" /><sodipodi:namedview
   id="namedview7"
   pagecolor="#ffffff"
   bordercolor="#000000"
   borderopacity="0.25"
   inkscape:showpageshadow="2"
   inkscape:pageopacity="0.0"
   inkscape:pagecheckerboard="0"
   inkscape:deskcolor="#d1d1d1" />
<g
   id="g4"
   transform="translate(-0.1,-0.00685092)">
	<path
   fill="#41a2f2"
   d="M 40.8,12.6 C 40,12.7 39.6,12.4 39.2,11.7 38.7,10.7 38.1,9.7 37.4,8.8 36.4,7.4 35,6.6 33.3,6.3 30.2,5.7 27.1,6 24,6.5 c 0.1,4.5 0.2,8.9 0.1,13.3 0,6 0.7,11.9 0.3,17.9 -0.2,2.7 0.1,5.4 0.1,8.1 0,0.6 0.3,0.9 0.9,0.9 0.6,0 1.3,0 1.9,0 0.6,0 0.9,0.3 0.8,0.9 0,0 0,0.1 0,0.1 -0.1,2.1 -0.1,2.1 -2.1,2.2 -2,0.1 -4,-0.1 -6.1,-0.1 -1.8,0 -3.6,0 -5.5,-0.1 -1.2,0 -1.2,0 -1.2,-1.1 0,-1.8 0,-1.8 1.8,-2.1 0.1,0 0.1,0 0.2,0 1.9,0 1.9,-0.3 2.1,-2.1 0.2,-2.3 0.2,-4.7 0.2,-7 0,-6.6 0.2,-13.2 0.2,-19.7 0,-3 -0.2,-5.9 -0.2,-8.9 0,-0.7 0,-1.4 0,-2.1 -1.6,0 -3.2,-0.1 -4.7,0 C 11.3,6.8 9.8,7.1 8.3,7.3 6.3,7.6 5,9 3.8,10.4 3.2,11.1 2.8,12 2.4,12.9 2.2,13.3 2,13.6 1.5,13.5 0.9,13.4 0.1,13.5 0.1,12.6 0.1,11.8 0.3,11 0.5,10.3 1,8.4 1.6,6.6 2.1,4.7 2.4,3.6 2.5,2.5 2.7,1.4 2.9,0.3 3.4,0.1 4.4,0.5 4.6,0.5 5,0.8 5.3,1.1 5.8,1.6 6.4,1.8 7.1,1.8 9,1.9 10.7,2.2 12.5,2 17.8,1.5 23,1.9 28.3,1.8 c 1.6,0 3.3,0.1 4.9,0.2 1.5,0.1 2.8,-0.5 3.9,-1.4 0.2,-0.2 0.5,-0.3 0.7,-0.4 1,-0.4 1.6,-0.2 1.8,0.8 0.8,3.5 1.5,6.9 2.2,10.4 0.2,1 0,1.1 -1,1.2 z"
   id="path2" />
</g>
</svg>
